assets/Anger symbol/Flat/anger_symbol_flat.svg

<svg width="32" height="32" viewBox="0 0 32 32" fill="none" xmlns="http://www.w3.org/2000/svg">
<path d="M9.32873 2.5052C8.50317 1.77137 7.23902 1.84573 6.50519 2.67129C5.77135 3.49686 5.84571 4.761 6.67128 5.49484C11.9291 10.1684 20.071 10.1684 25.3287 5.49484C26.1543 4.761 26.2287 3.49686 25.4948 2.67129C24.761 1.84573 23.4968 1.77137 22.6713 2.5052C18.9291 5.83163 13.071 5.83163 9.32873 2.5052Z" fill="#F8312F"/>
<path d="M9.36901 29.4579C12.8594 26.1807 19.1406 26.1807 22.631 29.458C23.4362 30.2141 24.7019 30.1743 25.458 29.369C26.2141 28.5638 26.1743 27.2981 25.369 26.542C20.3394 21.8193 11.6606 21.8194 6.631 26.5419C5.82576 27.298 5.7859 28.5637 6.54198 29.3689C7.29806 30.1742 8.56376 30.214 9.36901 29.4579Z" fill="#F8312F"/>
<path d="M29.369 6.542C30.1742 7.29809 30.2141 8.56379 29.458 9.36903C26.1807 12.8594 26.1807 19.1406 29.458 22.631C30.2141 23.4362 30.1743 24.7019 29.369 25.458C28.5638 26.2141 27.2981 26.1743 26.542 25.369C21.8193 20.3394 21.8193 11.6606 26.542 6.63099C27.2981 5.82575 28.5638 5.78591 29.369 6.542Z" fill="#F8312F"/>
<path d="M5.45801 6.63099C4.70192 5.82575 3.43622 5.78591 2.63099 6.542C1.82575 7.29809 1.78591 8.56379 2.542 9.36903C5.81934 12.8594 5.81934 19.1407 2.542 22.6311C1.78591 23.4363 1.82575 24.702 2.63099 25.4581C3.43622 26.2142 4.70192 26.1743 5.45801 25.3691C10.1807 20.3395 10.1807 11.6606 5.45801 6.63099Z" fill="#F8312F"/>
</svg>

<svg xmlns="http://www.w3.org/2000/svg" width="32" height="32" fill="none"><path fill="#F8312F" d="M9.329 2.505a2 2 0 0 0-2.658 2.99c5.258 4.673 13.4 4.673 18.658 0a2 2 0 1 0-2.658-2.99c-3.742 3.327-9.6 3.327-13.342 0ZM9.369 29.458c3.49-3.277 9.772-3.277 13.262 0a2 2 0 1 0 2.738-2.916c-5.03-4.723-13.708-4.723-18.738 0a2 2 0 1 0 2.738 2.916ZM29.369 6.542a2 2 0 0 1 .089 2.827c-3.277 3.49-3.277 9.772 0 13.262a2 2 0 1 1-2.916 2.738c-4.723-5.03-4.723-13.708 0-18.738a2 2 0 0 1 2.827-.089ZM5.458 6.631a2 2 0 1 0-2.916 2.738c3.277 3.49 3.277 9.772 0 13.262a2 2 0 1 0 2.916 2.738c4.723-5.03 4.723-13.708 0-18.738Z"/></svg>
